X: 13646
T: Follow Me Down
R: reel
M: 4/4
K: Adorian
ABAG EG~G2|AGAB cded|~c3G EFGB|1 Aage aAAG:|2 Aage aAAd||
egcg ecgc|BdGB dGBd|g2ec gcea|gedB BAAg|
agea gedB|cBcG EFGB|~A3G ABcd|eage aAAG||

